source/images/icons/icon-editorial/carte-de-credit.svg

<?xml version="1.0" encoding="UTF-8"?>
<svg width="80px" height="80px" viewBox="0 0 80 80" version="1.1" xmlns="http://www.w3.org/2000/svg" xmlns:xlink="http://www.w3.org/1999/xlink">
    <!-- Generator: Sketch 55.2 (78181) - https://sketchapp.com -->
    <title>Illustrative Icons/Carte de credit</title>
    <desc>Created with Sketch.</desc>
    <g id="Illustrative-Icons/Carte-de-credit" stroke="none" stroke-width="1" fill="none" fill-rule="evenodd">
        <path d="M17,50.3333334 C16.0795254,50.3333334 15.3333333,51.0795255 15.3333333,52 C15.3333333,52.9204746 16.0795254,53.6666667 17,53.6666667 L40.3333333,53.6666667 C41.253808,53.6666667 42,52.9204746 42,52 C42,51.0795255 41.253808,50.3333334 40.3333333,50.3333334 L17,50.3333334 Z M53.6666667,50.3333334 C52.7461921,50.3333334 52.0000001,51.0795255 52.0000001,52 C52.0000001,52.9204746 52.7461921,53.6666667 53.6666667,53.6666667 L63.6666667,53.6666667 C64.5871413,53.6666667 65.3333334,52.9204746 65.3333334,52 C65.3333334,51.0795255 64.5871413,50.3333334 63.6666667,50.3333334 L53.6666667,50.3333334 Z M68.6666667,17 L11.93,17 C9.20875879,17.0036724 7.0036724,19.2087588 7,21.93 L7,25.3333333 C7,26.2538079 7.74619208,27 8.66666667,27 C9.58714125,27 10.3333333,26.2538079 10.3333333,25.3333333 L10.3333333,21.93 C10.334252,21.0485661 11.0485661,20.334252 11.93,20.3333333 L68.6666667,20.3333333 C69.5871413,20.3333333 70.3333334,21.0795254 70.3333334,22 L70.3333334,58.6666667 C70.3333334,59.5871413 69.5871413,60.3333334 68.6666667,60.3333334 L12,60.3333334 C11.0795254,60.3333334 10.3333333,59.5871413 10.3333333,58.6666667 L10.3333333,33.6666667 L58.6666667,33.6666667 C59.5871413,33.6666667 60.3333334,32.9204746 60.3333334,32 C60.3333334,31.0795254 59.5871413,30.3333334 58.6666667,30.3333334 L8.66666667,30.3333334 C7.74619208,30.3333334 7,31.0795254 7,32 L7,58.6666667 C7,61.4280905 9.23857625,63.6666667 12,63.6666667 L68.6666667,63.6666667 C71.4280905,63.6666667 73.6666667,61.4280905 73.6666667,58.6666667 L73.6666667,22 C73.6666667,19.2385763 71.4280905,17 68.6666667,17 Z M65.3333334,33.6666667 C66.253808,33.6666667 67.0000001,32.9204746 67.0000001,32 C67.0000001,31.0795254 66.253808,30.3333334 65.3333334,30.3333334 C64.4128588,30.3333334 63.6666667,31.0795254 63.6666667,32 C63.6666667,32.9204746 64.4128588,33.6666667 65.3333334,33.6666667 Z" id="Shape-color" fill="#ADB5BD"></path>
    </g>
</svg>

<svg width="80" height="80">
    <title>
        Illustrative Icons/Carte de credit
    </title>
    <path d="M17 50.333a1.667 1.667 0 1 0 0 3.334h23.333a1.667 1.667 0 1 0 0-3.334H17zm36.667 0a1.667 1.667 0 1 0 0 3.334h10a1.667 1.667 0 0 0 0-3.334h-10zm15-33.333H11.93A4.937 4.937 0 0 0 7 21.93v3.403a1.667 1.667 0 1 0 3.333 0V21.93c.001-.881.716-1.596 1.597-1.597h56.737c.92 0 1.666.747 1.666 1.667v36.667c0 .92-.746 1.666-1.666 1.666H12c-.92 0-1.667-.746-1.667-1.666v-25h48.334a1.667 1.667 0 0 0 0-3.334h-50C7.747 30.333 7 31.08 7 32v26.667a5 5 0 0 0 5 5h56.667a5 5 0 0 0 5-5V22a5 5 0 0 0-5-5zm-3.334 16.667a1.667 1.667 0 1 0 0-3.334 1.667 1.667 0 0 0 0 3.334z" fill="#ADB5BD" fill-rule="evenodd"/>
</svg>
